Pop-Extended/128/apps/gnome-mahjongg.svg

<?xml version="1.0" encoding="UTF-8" standalone="no"?>
<!-- Created with Inkscape (http://www.inkscape.org/) -->

<svg
   width="128"
   height="128"
   viewBox="0 0 33.866666 33.866666"
   version="1.1"
   id="svg5"
   inkscape:version="1.2 (dc2aedaf03, 2022-05-15)"
   sodipodi:docname="gnome-mahjongg.svg"
   xmlns:inkscape="http://www.inkscape.org/namespaces/inkscape"
   xmlns:sodipodi="http://sodipodi.sourceforge.net/DTD/sodipodi-0.dtd"
   xmlns="http://www.w3.org/2000/svg"
   xmlns:svg="http://www.w3.org/2000/svg">
  <sodipodi:namedview
     id="namedview7"
     pagecolor="#ffffff"
     bordercolor="#666666"
     borderopacity="1.0"
     inkscape:pageshadow="2"
     inkscape:pageopacity="0.0"
     inkscape:pagecheckerboard="0"
     inkscape:document-units="px"
     showgrid="false"
     units="px"
     height="48px"
     inkscape:zoom="1.5898438"
     inkscape:cx="-18.869779"
     inkscape:cy="117.62162"
     inkscape:window-width="1846"
     inkscape:window-height="1011"
     inkscape:window-x="0"
     inkscape:window-y="0"
     inkscape:window-maximized="1"
     inkscape:current-layer="svg5"
     inkscape:showpageshadow="2"
     inkscape:deskcolor="#d1d1d1"
     showguides="false" />
  <defs
     id="defs2" />
  <rect
     style="opacity:1;fill:#ffce51;fill-opacity:1;stroke-width:0.529167"
     id="rect479"
     width="23.8125"
     height="30.956249"
     x="5.0270834"
     y="1.8520833"
     ry="2.2489583" />
  <path
     d="m 15.283316,8.084898 c -0.134199,0.1183653 -0.167744,0.295916 -0.167744,0.5030567 0,0.3846848 0.134197,0.8581325 0.201293,1.0356705 0,0 0.100649,2.0714048 0.134197,2.3081218 -0.301943,0.02962 -0.838728,0.05918 -1.04004,0.118365 h -0.268396 c -0.570345,0.02962 -1.107123,0.05918 -1.341976,0.266326 l -0.10065,0.08878 0.10065,0.118366 c 0.167746,0.177544 0.234841,0.680594 0.301943,1.213272 0.167744,1.094915 0.369032,2.456102 1.375518,2.988717 l 0.2013,0.08877 v -0.207141 c 0,0 0.03361,-0.08877 0.03361,-0.207141 0,-0.08878 -0.03361,-0.236732 -0.06709,-0.443872 0.268389,0.02962 0.838727,0.08878 1.04004,0.08878 0.03361,0.236731 0.90581,9.883785 0.90581,9.883785 h 0.33549 c 0,0 0.369046,-9.528451 0.369046,-9.824026 0.234834,0 1.274892,0.02962 1.57683,0.05918 -0.06708,0.177552 -0.335489,0.917313 -0.335489,0.917313 l 0.469681,-0.38469 c 0.134199,-0.08877 3.052972,-2.426477 2.650411,-3.965269 -0.134197,-0.50305 -0.603886,-0.858132 -1.375516,-1.03567 h -0.06721 c -0.436134,0 -1.778078,0.02962 -2.784577,0.08878 0.03361,-0.769396 0.03361,-1.183651 0.03361,-1.390811 V 10.12727 c 0,-0.1479608 0.167746,-0.3551018 0.301943,-0.5030568 0.134205,-0.177552 0.301943,-0.325505 0.301943,-0.5030495 0,-0.059179 -0.03361,-0.1183713 -0.06708,-0.1775519 -0.201301,-0.2663187 -1.677456,-0.9469324 -2.314871,-1.006112 -0.2013,0.029622 -0.335497,0.05918 -0.402593,0.1479548 z m 0.03361,4.852962 h 0.167746 c 0,0.26632 0.100647,2.130585 0.134197,2.396923 -0.268397,-0.02962 -0.905812,-0.08877 -1.107124,-0.08877 -0.10065,-0.384691 -0.134197,-0.798953 -0.167745,-1.213273 -0.03348,-0.355095 -0.06709,-0.710216 -0.134198,-1.035671 0.301943,0 1.107122,-0.05918 1.107122,-0.05918 z m 2.046538,0.917312 c 0,0 0.03348,-0.710216 0.03348,-0.946934 0.436135,0.05918 1.0065,0.08878 1.54329,0.08878 h 0.603892 c 0,0.118366 -0.03361,0.26632 -0.03361,0.26632 -0.06708,0.651037 -0.167747,1.420368 -0.469696,2.189763 -0.201286,0 -1.442601,-0.05918 -1.710997,-0.08878 0,-0.207141 0.03361,-1.509168 0.03361,-1.509168 z"
     style="fill:#997c31;fill-opacity:1;stroke-width:0.642555"
     id="path2882" />
  <path
     id="rect19790"
     style="opacity:0.5;fill:#000000;fill-opacity:1;stroke-width:0.79375"
     d="m 7.2760415,1.8520833 c -1.2459217,0 -2.2489583,1.0030366 -2.2489583,2.2489583 V 30.559374 c 0,1.245922 1.0030366,2.248959 2.2489583,2.248959 H 26.590624 c 1.245922,0 2.248959,-1.003037 2.248959,-2.248959 V 4.1010416 c 0,-1.2459217 -1.003037,-2.2489583 -2.248959,-2.2489583 z M 7.4083332,2.1166666 H 26.458333 c 1.172632,0 2.116666,0.9440346 2.116666,2.1166666 V 29.633333 c 0,1.172632 -0.944034,2.116666 -2.116666,2.116666 H 7.4083332 c -1.1726321,0 -2.1166666,-0.944034 -2.1166666,-2.116666 V 4.2333332 c 0,-1.172632 0.9440345,-2.1166666 2.1166666,-2.1166666 z" />
</svg>

<?xml version="1.0" encoding="UTF-8" standalone="no"?>
<!-- Created with Inkscape (http://www.inkscape.org/) -->

<svg
   width="128"
   height="128"
   viewBox="0 0 33.866666 33.866666"
   version="1.1"
   id="svg5"
   inkscape:version="1.2 (dc2aedaf03, 2022-05-15)"
   sodipodi:docname="gnome-mahjongg.svg"
   xmlns:inkscape="http://www.inkscape.org/namespaces/inkscape"
   xmlns:sodipodi="http://sodipodi.sourceforge.net/DTD/sodipodi-0.dtd"
   xmlns="http://www.w3.org/2000/svg"
   xmlns:svg="http://www.w3.org/2000/svg">
  <sodipodi:namedview
     id="namedview7"
     pagecolor="#ffffff"
     bordercolor="#666666"
     borderopacity="1.0"
     inkscape:pageshadow="2"
     inkscape:pageopacity="0.0"
     inkscape:pagecheckerboard="0"
     inkscape:document-units="px"
     showgrid="false"
     units="px"
     height="48px"
     inkscape:zoom="6.359375"
     inkscape:cx="64.39312"
     inkscape:cy="64"
     inkscape:window-width="1920"
     inkscape:window-height="1011"
     inkscape:window-x="0"
     inkscape:window-y="0"
     inkscape:window-maximized="1"
     inkscape:current-layer="svg5"
     inkscape:showpageshadow="2"
     inkscape:deskcolor="#d1d1d1"
     showguides="false" />
  <defs
     id="defs2" />
  <rect
     style="opacity:1;fill:#ffce51;fill-opacity:1;stroke-width:0.529167"
     id="rect479"
     width="23.8125"
     height="30.956249"
     x="5.0270834"
     y="1.8520833"
     ry="2.2489583" />
  <path
     d="m 15.283316,8.084898 c -0.134199,0.1183653 -0.167744,0.295916 -0.167744,0.5030567 0,0.3846848 0.134197,0.8581325 0.201293,1.0356705 0,0 0.100649,2.0714048 0.134197,2.3081218 -0.301943,0.02962 -0.838728,0.05918 -1.04004,0.118365 h -0.268396 c -0.570345,0.02962 -1.107123,0.05918 -1.341976,0.266326 l -0.10065,0.08878 0.10065,0.118366 c 0.167746,0.177544 0.234841,0.680594 0.301943,1.213272 0.167744,1.094915 0.369032,2.456102 1.375518,2.988717 l 0.2013,0.08877 v -0.207141 c 0,0 0.03361,-0.08877 0.03361,-0.207141 0,-0.08878 -0.03361,-0.236732 -0.06709,-0.443872 0.268389,0.02962 0.838727,0.08878 1.04004,0.08878 0.03361,0.236731 0.90581,9.883785 0.90581,9.883785 h 0.33549 c 0,0 0.369046,-9.528451 0.369046,-9.824026 0.234834,0 1.274892,0.02962 1.57683,0.05918 -0.06708,0.177552 -0.335489,0.917313 -0.335489,0.917313 l 0.469681,-0.38469 c 0.134199,-0.08877 3.052972,-2.426477 2.650411,-3.965269 -0.134197,-0.50305 -0.603886,-0.858132 -1.375516,-1.03567 h -0.06721 c -0.436134,0 -1.778078,0.02962 -2.784577,0.08878 0.03361,-0.769396 0.03361,-1.183651 0.03361,-1.390811 V 10.12727 c 0,-0.1479608 0.167746,-0.3551018 0.301943,-0.5030568 0.134205,-0.177552 0.301943,-0.325505 0.301943,-0.5030495 0,-0.059179 -0.03361,-0.1183713 -0.06708,-0.1775519 -0.201301,-0.2663187 -1.677456,-0.9469324 -2.314871,-1.006112 -0.2013,0.029622 -0.335497,0.05918 -0.402593,0.1479548 z m 0.03361,4.852962 h 0.167746 c 0,0.26632 0.100647,2.130585 0.134197,2.396923 -0.268397,-0.02962 -0.905812,-0.08877 -1.107124,-0.08877 -0.10065,-0.384691 -0.134197,-0.798953 -0.167745,-1.213273 -0.03348,-0.355095 -0.06709,-0.710216 -0.134198,-1.035671 0.301943,0 1.107122,-0.05918 1.107122,-0.05918 z m 2.046538,0.917312 c 0,0 0.03348,-0.710216 0.03348,-0.946934 0.436135,0.05918 1.0065,0.08878 1.54329,0.08878 h 0.603892 c 0,0.118366 -0.03361,0.26632 -0.03361,0.26632 -0.06708,0.651037 -0.167747,1.420368 -0.469696,2.189763 -0.201286,0 -1.442601,-0.05918 -1.710997,-0.08878 0,-0.207141 0.03361,-1.509168 0.03361,-1.509168 z"
     style="fill:#997c31;fill-opacity:1;stroke-width:0.642555"
     id="path2882" />
  <path
     id="rect19790"
     style="opacity:0.5;fill:#000000;fill-opacity:1;stroke-width:0.79375"
     d="M 7.2760415 1.8520833 C 6.0301198 1.8520833 5.0270832 2.8551199 5.0270832 4.1010416 L 5.0270832 30.559374 C 5.0270832 31.805296 6.0301198 32.808333 7.2760415 32.808333 L 26.590624 32.808333 C 27.836546 32.808333 28.839583 31.805296 28.839583 30.559374 L 28.839583 4.1010416 C 28.839583 2.8551199 27.836546 1.8520833 26.590624 1.8520833 L 7.2760415 1.8520833 z M 7.4083332 2.1166666 L 26.458333 2.1166666 C 27.630965 2.1166666 28.574999 3.0607012 28.574999 4.2333332 L 28.574999 29.633333 C 28.574999 30.805965 27.630965 31.749999 26.458333 31.749999 L 7.4083332 31.749999 C 6.2357011 31.749999 5.2916666 30.805965 5.2916666 29.633333 L 5.2916666 4.2333332 C 5.2916666 3.0607012 6.2357011 2.1166666 7.4083332 2.1166666 z " />
</svg>
